dist/images/icons/icon-time.svg

<svg width="20" height="21" viewBox="0 0 20 21" fill="none" xmlns="http://www.w3.org/2000/svg">
<path d="M10.5748 1.56994V0.611111C10.5748 0.449034 10.5104 0.293596 10.3958 0.17899C10.2812 0.0643848 10.1257 0 9.96367 0C9.80159 0 9.64615 0.0643848 9.53155 0.17899C9.41694 0.293596 9.35256 0.449034 9.35256 0.611111V1.57544C4.55045 1.90911 0.744446 5.91953 0.744446 10.8051C0.744446 15.9075 4.89664 20.0597 10 20.0597C15.1034 20.0597 19.2556 15.9075 19.2556 10.8051C19.2556 5.89508 15.4114 1.86786 10.5748 1.56994V1.56994ZM10 18.8375C5.57039 18.8375 1.96667 15.2338 1.96667 10.8051C1.96667 6.37572 5.57039 2.77231 10 2.77231C14.4297 2.77231 18.0334 6.37572 18.0334 10.8051C18.0334 15.2338 14.4297 18.8375 10 18.8375Z" fill="black"/>
<path d="M6.86293 16.3515C4.86796 15.22 3.62863 13.0942 3.62863 10.8047C3.62863 10.6354 3.49204 10.4991 3.32307 10.4991C3.1541 10.4991 3.01752 10.6354 3.01752 10.8047C3.01752 13.3139 4.37571 15.6432 6.56166 16.8834C6.6322 16.9234 6.71572 16.9337 6.79386 16.912C6.87199 16.8904 6.93833 16.8386 6.97828 16.7681C7.01823 16.6975 7.02852 16.614 7.00689 16.5359C6.98526 16.4577 6.93348 16.3914 6.86293 16.3515Z" fill="black"/>
<path d="M8.52923 17.1897C8.41091 17.1588 8.29343 17.1248 8.17693 17.0876C8.10021 17.0646 8.01754 17.0727 7.94672 17.1101C7.87589 17.1474 7.82257 17.2111 7.79822 17.2874C7.77387 17.3637 7.78044 17.4465 7.81653 17.518C7.85261 17.5895 7.91531 17.644 7.99115 17.6697C8.11826 17.7106 8.24598 17.7473 8.37646 17.7806C8.4549 17.8008 8.53817 17.7891 8.60796 17.748C8.67775 17.7068 8.72835 17.6396 8.74862 17.5612C8.75868 17.5224 8.76098 17.482 8.75539 17.4423C8.7498 17.4026 8.73643 17.3644 8.71605 17.3299C8.69567 17.2954 8.66868 17.2652 8.63662 17.2412C8.60456 17.2171 8.56807 17.1996 8.52923 17.1897Z" fill="black"/>
<path d="M17.8854 4.75778C18.0002 4.87221 18.1557 4.93636 18.3177 4.93613C18.4798 4.93591 18.6351 4.87131 18.7495 4.75656C18.864 4.64181 18.9281 4.4863 18.9279 4.32425C18.9277 4.1622 18.8631 4.00687 18.7483 3.89245L17.1616 2.30967C17.1048 2.25295 17.0374 2.20798 16.9632 2.17734C16.889 2.1467 16.8095 2.13099 16.7293 2.1311C16.649 2.13122 16.5695 2.14716 16.4955 2.17801C16.4214 2.20886 16.3541 2.25401 16.2975 2.31089C16.1831 2.4257 16.119 2.58118 16.1193 2.7432C16.1195 2.90522 16.184 3.06053 16.2987 3.175L17.8854 4.75778V4.75778Z" fill="black"/>
<path d="M10.5746 10.6911V5.80557C10.5746 5.64349 10.5102 5.48805 10.3956 5.37345C10.281 5.25884 10.1255 5.19446 9.96347 5.19446C9.80139 5.19446 9.64595 5.25884 9.53135 5.37345C9.41674 5.48805 9.35236 5.64349 9.35236 5.80557V10.9551C9.35236 11.1235 9.44005 11.2839 9.56227 11.3991L11.3507 13.0705C11.4689 13.1817 11.6196 13.2373 11.7702 13.2373C11.8521 13.2374 11.933 13.2204 12.0079 13.1874C12.0828 13.1543 12.1499 13.106 12.205 13.0454C12.4375 12.7997 12.4168 12.4132 12.1714 12.1816L10.5746 10.6911V10.6911Z" fill="black"/>
</svg>

<svg width="20" height="21" fill="none" xmlns="http://www.w3.org/2000/svg"><path d="M10.575 1.57V.61a.611.611 0 00-1.222 0v.964C4.55 1.91.744 5.92.744 10.805c0 5.103 4.153 9.255 9.256 9.255 5.103 0 9.256-4.152 9.256-9.255 0-4.91-3.845-8.937-8.681-9.235zM10 18.837c-4.43 0-8.033-3.603-8.033-8.032 0-4.43 3.603-8.033 8.033-8.033s8.033 3.604 8.033 8.033c0 4.429-3.603 8.032-8.033 8.032z" fill="#000"/><path d="M6.863 16.352a6.39 6.39 0 01-3.234-5.547.305.305 0 10-.611 0 7.003 7.003 0 003.544 6.078.305.305 0 10.3-.531zm1.667.838a6.84 6.84 0 01-.353-.102.305.305 0 00-.186.582c.127.04.255.077.385.11a.306.306 0 00.153-.59zm9.355-12.432a.611.611 0 00.863-.866L17.162 2.31a.61.61 0 10-.863.865l1.586 1.583zm-7.31 5.933V5.806a.611.611 0 00-1.223 0v5.15c0 .168.088.328.21.443l1.789 1.671a.61.61 0 00.657.117.61.61 0 00.164-1.006l-1.597-1.49z" fill="#000"/></svg>
